X: 7851
T:Sonderh\o{}ning III
R:Sonderh\o{}ning
Q:1/4=92
M:2/4
L:1/8
O:Denmark
A:Fan\o{}
K:D
A>G FA| d/c/d/e/ d2| cd ec| d/c/d/e/ fd|\
A>G FA| d/c/d/e/ d2| c/d/e/f/ gc| dz dz:|
|:\
gg/a/ ge| ff/g/ fd| ee/f/ ec| d/e/f/g/ af|\
gg/a/ ge| ff/g/ fd| c/d/e/f/ gc| dz dz:|
